X:152
T:Untitled. JaW.152
M:C
L:1/8
Q:1/4=160
S:James Winder Ms, Lancashire, 1835-41
R:.Strathspey
O:England
A:Wyresdale,Lancashire
Z:vmp.Chris Partington, Aug 2004
K:G
G|D>EGG G2g>e|dBAG|A2-AB|D>EGG G2(g>e)|(d<B)(A<B) “cr”G3:|!
d|g>agf edeg|dBAG A2-Ae/f/|g>agf edeg|d<BA>B G2Gd|!
g>agf edeg|dBAG A2-AB|D>EGG G2(g>e)|(d<B)(A<B) “cr”G3|]

